dist/static/img/context/res-6.svg

<svg width="80" height="80" viewBox="0 0 80 80" fill="none" xmlns="http://www.w3.org/2000/svg">
<rect width="80" height="80" rx="40" fill="#1F5AFF"/>
<path fill-rule="evenodd" clip-rule="evenodd" d="M26.501 41.875C26.915 41.875 27.251 42.211 27.251 42.6251V53.125C27.251 53.5391 26.915 53.8751 26.501 53.8751H19.001C18.587 53.8751 18.251 53.5391 18.251 53.125V42.6251C18.251 42.211 18.587 41.875 19.001 41.875H26.501ZM19.751 52.3749V43.3752H25.751V52.3749H19.751Z" fill="white"/>
<path fill-rule="evenodd" clip-rule="evenodd" d="M38.501 34.375C38.915 34.375 39.251 34.7105 39.251 35.1252V53.1251C39.251 53.5391 38.915 53.8753 38.501 53.8753H31.001C30.587 53.8753 30.251 53.5391 30.251 53.1251V35.1252C30.251 34.7105 30.587 34.375 31.001 34.375H38.501ZM31.751 52.3749V35.8754H37.751V52.3749H31.751Z" fill="white"/>
<path d="M19 56.875H50.5C50.9142 56.875 51.2499 56.539 51.2499 56.125C51.2499 55.711 50.9142 55.375 50.5 55.375H19C18.5858 55.375 18.25 55.711 18.25 56.125C18.25 56.539 18.5858 56.875 19 56.875Z" fill="white"/>
<path d="M42.2511 29.1244H38.5011C38.1976 29.1244 37.9241 28.9414 37.8081 28.6609C37.6921 28.3812 37.7561 28.0587 37.9706 27.8442L46.2206 19.5949C46.5136 19.3017 46.9886 19.3017 47.2816 19.5949L55.5316 27.8449C55.7461 28.0594 55.8101 28.3819 55.6941 28.6624C55.5781 28.9422 55.3046 29.1252 55.0011 29.1252H51.2511V39.6252C51.2511 40.0392 50.9151 40.3752 50.5011 40.3752C50.0871 40.3752 49.7511 40.0392 49.7511 39.6252V28.3752C49.7511 27.9612 50.0871 27.6252 50.5011 27.6252H53.1906L46.7511 21.1857L40.3121 27.6244H43.0011C43.4151 27.6244 43.7511 27.9604 43.7511 28.3744V41.8752C43.7511 42.2892 43.4151 42.6252 43.0011 42.6252C42.5871 42.6252 42.2511 42.2892 42.2511 41.8752V29.1244Z" fill="white"/>
<path fill-rule="evenodd" clip-rule="evenodd" d="M49 53.875C50.3853 53.875 51.6617 53.404 52.6787 52.6143L54.3145 54.25L53.7197 54.8447C53.4265 55.1372 53.4265 55.6128 53.7197 55.9053L58.2197 60.4053C58.5122 60.6985 58.9878 60.6985 59.2803 60.4053L61.5303 58.1553C61.8235 57.8628 61.8235 57.3872 61.5303 57.0947L57.0303 52.5947C56.7378 52.3015 56.2622 52.3015 55.9697 52.5947L55.375 53.1895L53.7393 51.5537C54.529 50.5367 55 49.2603 55 47.875C55 44.5638 52.3112 41.875 49 41.875C45.6888 41.875 43 44.5638 43 47.875C43 51.1862 45.6888 53.875 49 53.875ZM59.9395 57.625L58.75 58.8145L55.3105 55.375L56.5 54.1855L59.9395 57.625ZM53.5 47.875C53.5 45.3917 51.4832 43.375 49 43.375C46.5167 43.375 44.5 45.3917 44.5 47.875C44.5 50.3582 46.5167 52.375 49 52.375C51.4832 52.375 53.5 50.3582 53.5 47.875Z" fill="white"/>
<path d="M53.5 38.125C53.6989 38.125 53.8897 38.046 54.0303 37.9053C54.171 37.7647 54.25 37.5739 54.25 37.375C54.25 37.1761 54.171 36.9853 54.0303 36.8447C53.8897 36.704 53.6989 36.625 53.5 36.625C53.3011 36.625 53.1103 36.704 52.9697 36.8447C52.829 36.9853 52.75 37.1761 52.75 37.375C52.75 37.5739 52.829 37.7647 52.9697 37.9053C53.1103 38.046 53.3011 38.125 53.5 38.125Z" fill="white"/>
<path d="M52.75 31.375V34.375C52.75 34.7889 53.086 35.125 53.5 35.125C53.914 35.125 54.25 34.7889 54.25 34.375V31.375C54.25 30.961 53.914 30.625 53.5 30.625C53.086 30.625 52.75 30.961 52.75 31.375Z" fill="white"/>
</svg>

<svg width="80" height="80" viewBox="0 0 80 80" fill="none" xmlns="http://www.w3.org/2000/svg"><rect width="80" height="80" rx="40" fill="#1F5AFF"/><path fill-rule="evenodd" clip-rule="evenodd" d="M26.501 41.875a.75.75 0 01.75.75v10.5a.75.75 0 01-.75.75h-7.5a.75.75 0 01-.75-.75v-10.5a.75.75 0 01.75-.75h7.5zm-6.75 10.5v-9h6v9h-6zm18.75-18a.75.75 0 01.75.75v18a.75.75 0 01-.75.75h-7.5a.75.75 0 01-.75-.75v-18a.75.75 0 01.75-.75h7.5zm-6.75 18v-16.5h6v16.5h-6z" fill="#fff"/><path d="M19 56.875h31.5a.75.75 0 000-1.5H19a.75.75 0 000 1.5zm23.251-27.751h-3.75a.75.75 0 01-.53-1.28l8.25-8.25a.75.75 0 011.06 0l8.25 8.25a.75.75 0 01-.53 1.281h-3.75v10.5a.75.75 0 01-1.5 0v-11.25a.75.75 0 01.75-.75h2.69l-6.44-6.44-6.439 6.44h2.69a.75.75 0 01.75.75v13.5a.75.75 0 01-1.5 0v-12.75z" fill="#fff"/><path fill-rule="evenodd" clip-rule="evenodd" d="M49 53.875a5.978 5.978 0 003.679-1.26l1.636 1.635-.595.595a.75.75 0 000 1.06l4.5 4.5a.75.75 0 001.06 0l2.25-2.25a.75.75 0 000-1.06l-4.5-4.5a.75.75 0 00-1.06 0l-.595.595-1.636-1.636A5.978 5.978 0 0055 47.875c0-3.311-2.689-6-6-6s-6 2.689-6 6 2.689 6 6 6zm10.94 3.75l-1.19 1.19-3.44-3.44 1.19-1.19 3.44 3.44zm-6.44-9.75c0-2.483-2.017-4.5-4.5-4.5a4.503 4.503 0 00-4.5 4.5c0 2.483 2.017 4.5 4.5 4.5s4.5-2.017 4.5-4.5z" fill="#fff"/><path d="M53.5 38.125a.75.75 0 100-1.5.75.75 0 000 1.5zm-.75-6.75v3a.75.75 0 001.5 0v-3a.75.75 0 00-1.5 0z" fill="#fff"/></svg>
